X: 131
T: Carpathian Tune (Am)
S: String Beings 11/98
N: From a hand-scribbles MS ...
M: 2/4
L: 1/16
K: Am
|: "Am"ABcd e2e2 | "B7"^d2d2 "E7"e4 | "Am"cBA2 B2c2 | "E7"B8 \
|  "Am"ABcd e2e2 | "B7"^d2d2 "E7"e4 | "Am"cBA2 "E7"B2c2 | "Am"A8 :|
|: "Dm"d2{ed}A2 d2{ed}A2 | "Am"c2{dc}A2 c2{dc}A2 | "Dm"d2{ed}A2 d3e | "E7"cdBc "Am"A4 \
|  "Dm"d2{ed}A2 d2{ed}A2 | "Am"c2{dc}A2 c2d2 | "E7"e4 e2ef | e2d2 c2B2 :|
